X: 16
T: Tam Lin
R: reel
M: 4/4
L: 1/8
K: Emin
|:B2 eBgB eB|c2 ecgc ec|d2 fdad fd|gfed Beed|
B2 eBgB eB|c2 ecgc ec|d2 fdad fd|gfed Be e2||
|:eB B2 GBEB|eB B2 GBEB|dA A2 FA A2|dA A2 defd|
eB B2 GBEB|eB B2 GBEB|c3d e3f|gfed Be e2||


Tune 248	Setting 12961

